public/images/partner4.svg

<svg width="151" height="36" viewBox="0 0 151 36" fill="none" xmlns="http://www.w3.org/2000/svg">
<path d="M26.6241 18.001C23.8603 21.089 19.8439 23.0323 15.3736 23.0323C10.9033 23.0323 6.88684 21.089 4.12305 18.001C6.88684 14.9131 10.9033 12.9697 15.3736 12.9697C19.8439 12.9697 23.8603 14.9131 26.6241 18.001Z" fill="white"/>
<path fill-rule="evenodd" clip-rule="evenodd" d="M0.279297 28.0636C0.279297 19.7275 7.03706 12.9697 15.3732 12.9697C10.9029 12.9697 6.8865 14.9131 4.1227 18.001C6.8865 21.089 10.9029 23.0323 15.3732 23.0323C19.8435 23.0323 23.8599 21.089 26.6237 18.001C29.0138 20.6714 30.4671 24.1978 30.4671 28.0636V33.7658C30.4671 34.5068 29.8664 35.1075 29.1254 35.1075H1.62098C0.879987 35.1075 0.279297 34.5068 0.279297 33.7658V28.0636ZM26.6237 18.001C26.6237 18.001 26.6237 18.0011 26.6237 18.001V18.001Z" fill="#7CD4FD"/>
<path fill-rule="evenodd" clip-rule="evenodd" d="M9.71165 21.9336C7.55645 21.0609 5.64865 19.7049 4.1227 18C6.8865 14.912 10.9029 12.9687 15.3732 12.9687C19.8435 12.9687 23.8599 14.912 26.6237 18C26.6237 18 26.6237 18 26.6237 18C29.0138 15.3296 30.4671 11.8032 30.4671 7.93738V2.23524C30.4671 1.49425 29.8664 0.893557 29.1254 0.893557L1.62098 0.893555C0.879989 0.893555 0.279297 1.49425 0.279297 2.23524L0.279297 7.93738C0.279296 14.2714 4.18076 19.6941 9.71165 21.9336Z" fill="#0BA5EC"/>
<path d="M54.0434 10.5804V25.7772H50.9953V19.3109H44.4856V25.7772H41.4375V10.5804H44.4856V16.8289H50.9953V10.5804H54.0434Z" fill="white"/>
<path d="M62.3993 25.9731C61.2382 25.9731 60.1931 25.7191 59.2642 25.2111C58.3353 24.6886 57.6023 23.9556 57.0652 23.0121C56.5427 22.0687 56.2814 20.9801 56.2814 19.7464C56.2814 18.5126 56.55 17.424 57.087 16.4806C57.6386 15.5371 58.3861 14.8114 59.3295 14.3034C60.2729 13.7809 61.3252 13.5196 62.4864 13.5196C63.6476 13.5196 64.6999 13.7809 65.6433 14.3034C66.5868 14.8114 67.327 15.5371 67.864 16.4806C68.4156 17.424 68.6914 18.5126 68.6914 19.7464C68.6914 20.9801 68.4083 22.0687 67.8423 23.0121C67.2907 23.9556 66.536 24.6886 65.578 25.2111C64.6346 25.7191 63.575 25.9731 62.3993 25.9731ZM62.3993 23.3169C62.9509 23.3169 63.4661 23.1863 63.9451 22.9251C64.4386 22.6493 64.8305 22.2429 65.1208 21.7058C65.4111 21.1688 65.5562 20.5156 65.5562 19.7464C65.5562 18.5997 65.2514 17.7216 64.6418 17.112C64.0467 16.4879 63.3137 16.1758 62.4429 16.1758C61.572 16.1758 60.839 16.4879 60.2439 17.112C59.6633 17.7216 59.373 18.5997 59.373 19.7464C59.373 20.893 59.6561 21.7784 60.2221 22.4025C60.8027 23.0121 61.5285 23.3169 62.3993 23.3169Z" fill="white"/>
<path d="M82.3139 13.7156V25.7772H79.2441V24.2531C78.8522 24.7757 78.3369 25.1893 77.6983 25.4941C77.0741 25.7844 76.392 25.9296 75.6517 25.9296C74.7083 25.9296 73.8737 25.7336 73.148 25.3417C72.4222 24.9353 71.8489 24.3475 71.428 23.5782C71.0216 22.7944 70.8184 21.8655 70.8184 20.7914V13.7156H73.8664V20.356C73.8664 21.3139 74.1059 22.0542 74.5849 22.5767C75.0639 23.0847 75.717 23.3387 76.5444 23.3387C77.3862 23.3387 78.0466 23.0847 78.5256 22.5767C79.0046 22.0542 79.2441 21.3139 79.2441 20.356V13.7156H82.3139Z" fill="white"/>
<path d="M88.3693 15.5879C88.7612 14.9493 89.2692 14.4486 89.8934 14.0857C90.532 13.7228 91.2577 13.5414 92.0705 13.5414V16.7419H91.265C90.307 16.7419 89.5813 16.9668 89.0878 17.4168C88.6088 17.8667 88.3693 18.6505 88.3693 19.7681V25.7772H85.3213V13.7156H88.3693V15.5879Z" fill="white"/>
<path d="M98.848 13.5196C99.7479 13.5196 100.539 13.7011 101.221 14.0639C101.903 14.4123 102.44 14.8695 102.832 15.4355V13.7156H105.902V25.8642C105.902 26.9819 105.677 27.9761 105.227 28.847C104.777 29.7324 104.102 30.4291 103.202 30.9371C102.303 31.4596 101.214 31.7209 99.9366 31.7209C98.2239 31.7209 96.816 31.3217 95.7129 30.5234C94.6243 29.7251 94.0074 28.6365 93.8623 27.2576H96.8886C97.0482 27.8092 97.3893 28.2446 97.9119 28.564C98.4489 28.8978 99.0948 29.0647 99.8495 29.0647C100.735 29.0647 101.453 28.7962 102.005 28.2591C102.557 27.7366 102.832 26.9383 102.832 25.8642V23.9919C102.44 24.5579 101.896 25.0297 101.199 25.407C100.517 25.7844 99.7334 25.9731 98.848 25.9731C97.832 25.9731 96.9031 25.7118 96.0613 25.1893C95.2194 24.6668 94.5517 23.9338 94.0582 22.9904C93.5793 22.0324 93.3398 20.9366 93.3398 19.7028C93.3398 18.4836 93.5793 17.4023 94.0582 16.4588C94.5517 15.5154 95.2122 14.7896 96.0395 14.2816C96.8813 13.7736 97.8175 13.5196 98.848 13.5196ZM102.832 19.7464C102.832 19.0061 102.687 18.3747 102.397 17.8522C102.107 17.3152 101.715 16.9088 101.221 16.633C100.728 16.3427 100.198 16.1976 99.6318 16.1976C99.0658 16.1976 98.5432 16.3354 98.0643 16.6112C97.5853 16.887 97.1934 17.2934 96.8886 17.8304C96.5983 18.353 96.4531 18.9771 96.4531 19.7028C96.4531 20.4286 96.5983 21.0672 96.8886 21.6187C97.1934 22.1558 97.5853 22.5694 98.0643 22.8597C98.5578 23.15 99.0803 23.2952 99.6318 23.2952C100.198 23.2952 100.728 23.1573 101.221 22.8815C101.715 22.5912 102.107 22.1848 102.397 21.6623C102.687 21.1252 102.832 20.4866 102.832 19.7464Z" fill="white"/>
<path d="M111.927 9.66602V25.7772H108.879V9.66602H111.927Z" fill="white"/>
<path d="M114.155 19.7028C114.155 18.4836 114.394 17.4023 114.873 16.4588C115.367 15.5154 116.027 14.7896 116.855 14.2816C117.696 13.7736 118.633 13.5196 119.663 13.5196C120.563 13.5196 121.347 13.7011 122.014 14.0639C122.697 14.4268 123.241 14.884 123.647 15.4355V13.7156H126.717V25.7772H123.647V24.0136C123.255 24.5797 122.711 25.0514 122.014 25.4288C121.332 25.7917 120.541 25.9731 119.641 25.9731C118.625 25.9731 117.696 25.7118 116.855 25.1893C116.027 24.6668 115.367 23.9338 114.873 22.9904C114.394 22.0324 114.155 20.9366 114.155 19.7028ZM123.647 19.7464C123.647 19.0061 123.502 18.3747 123.212 17.8522C122.922 17.3152 122.53 16.9088 122.036 16.633C121.543 16.3427 121.013 16.1976 120.447 16.1976C119.881 16.1976 119.358 16.3354 118.879 16.6112C118.4 16.887 118.008 17.2934 117.704 17.8304C117.413 18.353 117.268 18.9771 117.268 19.7028C117.268 20.4286 117.413 21.0672 117.704 21.6187C118.008 22.1558 118.4 22.5694 118.879 22.8597C119.373 23.15 119.895 23.2952 120.447 23.2952C121.013 23.2952 121.543 23.1573 122.036 22.8815C122.53 22.5912 122.922 22.1848 123.212 21.6623C123.502 21.1252 123.647 20.4866 123.647 19.7464Z" fill="white"/>
<path d="M134.31 25.9731C133.323 25.9731 132.437 25.7989 131.654 25.4506C130.87 25.0877 130.246 24.6015 129.781 23.9919C129.331 23.3823 129.084 22.7073 129.041 21.9671H132.111C132.169 22.4316 132.394 22.8162 132.786 23.121C133.192 23.4258 133.693 23.5782 134.288 23.5782C134.869 23.5782 135.318 23.4621 135.638 23.2299C135.972 22.9976 136.139 22.7001 136.139 22.3372C136.139 21.9453 135.935 21.655 135.529 21.4663C135.137 21.2631 134.506 21.0454 133.635 20.8132C132.735 20.5955 131.995 20.3705 131.414 20.1383C130.848 19.906 130.355 19.5504 129.934 19.0714C129.527 18.5925 129.324 17.9466 129.324 17.1337C129.324 16.4661 129.513 15.8565 129.89 15.3049C130.282 14.7534 130.833 14.3179 131.545 13.9986C132.27 13.6793 133.12 13.5196 134.092 13.5196C135.529 13.5196 136.676 13.8825 137.532 14.6082C138.388 15.3194 138.86 16.2846 138.947 17.5039H136.03C135.986 17.0249 135.783 16.6475 135.42 16.3717C135.072 16.0814 134.6 15.9363 134.005 15.9363C133.453 15.9363 133.025 16.0379 132.72 16.2411C132.43 16.4443 132.285 16.7273 132.285 17.0902C132.285 17.4966 132.488 17.8087 132.895 18.0264C133.301 18.2296 133.932 18.4401 134.789 18.6578C135.66 18.8755 136.378 19.1005 136.944 19.3327C137.51 19.5649 137.996 19.9278 138.403 20.4213C138.824 20.9003 139.041 21.5389 139.056 22.3372C139.056 23.0339 138.86 23.658 138.468 24.2096C138.091 24.7611 137.539 25.1966 136.813 25.5159C136.102 25.8207 135.268 25.9731 134.31 25.9731Z" fill="white"/>
<path d="M146.174 25.9731C145.187 25.9731 144.301 25.7989 143.517 25.4506C142.734 25.0877 142.11 24.6015 141.645 23.9919C141.195 23.3823 140.948 22.7073 140.905 21.9671H143.975C144.033 22.4316 144.258 22.8162 144.65 23.121C145.056 23.4258 145.557 23.5782 146.152 23.5782C146.732 23.5782 147.182 23.4621 147.502 23.2299C147.836 22.9976 148.002 22.7001 148.002 22.3372C148.002 21.9453 147.799 21.655 147.393 21.4663C147.001 21.2631 146.37 21.0454 145.499 20.8132C144.599 20.5955 143.859 20.3705 143.278 20.1383C142.712 19.906 142.218 19.5504 141.798 19.0714C141.391 18.5925 141.188 17.9466 141.188 17.1337C141.188 16.4661 141.377 15.8565 141.754 15.3049C142.146 14.7534 142.697 14.3179 143.409 13.9986C144.134 13.6793 144.983 13.5196 145.956 13.5196C147.393 13.5196 148.54 13.8825 149.396 14.6082C150.252 15.3194 150.724 16.2846 150.811 17.5039H147.894C147.85 17.0249 147.647 16.6475 147.284 16.3717C146.936 16.0814 146.464 15.9363 145.869 15.9363C145.317 15.9363 144.889 16.0379 144.584 16.2411C144.294 16.4443 144.149 16.7273 144.149 17.0902C144.149 17.4966 144.352 17.8087 144.758 18.0264C145.165 18.2296 145.796 18.4401 146.653 18.6578C147.523 18.8755 148.242 19.1005 148.808 19.3327C149.374 19.5649 149.86 19.9278 150.267 20.4213C150.688 20.9003 150.905 21.5389 150.92 22.3372C150.92 23.0339 150.724 23.658 150.332 24.2096C149.955 24.7611 149.403 25.1966 148.677 25.5159C147.966 25.8207 147.132 25.9731 146.174 25.9731Z" fill="white"/>
</svg>

<svg width="151" height="36" fill="none" xmlns="http://www.w3.org/2000/svg"><path d="M26.624 18.001a15.056 15.056 0 0 1-11.25 5.031c-4.47 0-8.487-1.943-11.251-5.031a15.057 15.057 0 0 1 11.25-5.031c4.47 0 8.487 1.943 11.251 5.031z" fill="#fff"/><path fill-rule="evenodd" clip-rule="evenodd" d="M.28 28.064c0-8.337 6.757-15.094 15.093-15.094-4.47 0-8.486 1.943-11.25 5.031a15.056 15.056 0 0 0 11.25 5.031c4.47 0 8.487-1.943 11.25-5.031a15.038 15.038 0 0 1 3.844 10.063v5.702c0 .74-.6 1.342-1.342 1.342H1.621c-.741 0-1.342-.601-1.342-1.342v-5.702zM26.623 18z" fill="#7CD4FD"/><path fill-rule="evenodd" clip-rule="evenodd" d="M9.712 21.934A15.127 15.127 0 0 1 4.122 18a15.056 15.056 0 0 1 11.251-5.031c4.47 0 8.487 1.943 11.25 5.031a15.038 15.038 0 0 0 3.844-10.063V2.235c0-.74-.6-1.341-1.342-1.341H1.621c-.741 0-1.342.6-1.342 1.341v5.702c0 6.334 3.902 11.757 9.433 13.997z" fill="#0BA5EC"/><path d="M54.043 10.58v15.197h-3.048v-6.466h-6.51v6.466h-3.047V10.58h3.048v6.249h6.51V10.58h3.047zM62.4 25.973c-1.162 0-2.207-.254-3.136-.762a5.717 5.717 0 0 1-2.199-2.199c-.522-.943-.784-2.032-.784-3.266 0-1.233.269-2.322.806-3.265a5.672 5.672 0 0 1 2.242-2.178c.944-.522 1.996-.783 3.157-.783 1.162 0 2.214.26 3.157.783a5.525 5.525 0 0 1 2.221 2.178c.552.943.827 2.032.827 3.265 0 1.234-.283 2.323-.849 3.266a5.785 5.785 0 0 1-2.264 2.2c-.943.507-2.003.761-3.179.761zm0-2.656c.55 0 1.066-.13 1.545-.392a2.979 2.979 0 0 0 1.176-1.22c.29-.536.435-1.19.435-1.959 0-1.146-.305-2.024-.914-2.634-.595-.624-1.328-.936-2.2-.936-.87 0-1.603.312-2.198.936-.58.61-.871 1.488-.871 2.634 0 1.147.283 2.032.85 2.657.58.61 1.306.914 2.176.914zM82.314 13.716v12.061h-3.07v-1.524a4.098 4.098 0 0 1-1.546 1.241 4.793 4.793 0 0 1-2.046.436c-.944 0-1.778-.196-2.504-.588-.726-.407-1.3-.994-1.72-1.764-.406-.784-.61-1.712-.61-2.787v-7.075h3.048v6.64c0 .958.24 1.698.719 2.22.479.509 1.132.763 1.96.763.841 0 1.502-.254 1.98-.762.48-.523.72-1.263.72-2.221v-6.64h3.069zM88.37 15.588c.391-.639.9-1.14 1.523-1.502.639-.363 1.365-.545 2.177-.545v3.2h-.805c-.958 0-1.684.226-2.177.676-.48.45-.719 1.233-.719 2.351v6.01h-3.048V13.715h3.048v1.872zM98.848 13.52c.9 0 1.691.181 2.373.544.682.348 1.219.806 1.611 1.371v-1.72h3.07v12.15c0 1.117-.225 2.111-.675 2.982-.45.885-1.125 1.582-2.025 2.09-.899.523-1.988.784-3.265.784-1.713 0-3.121-.4-4.224-1.198-1.089-.798-1.706-1.886-1.85-3.265h3.026c.16.551.5.987 1.023 1.306.537.334 1.183.5 1.938.5.885 0 1.603-.268 2.155-.805.552-.522.827-1.32.827-2.395v-1.872c-.392.566-.936 1.038-1.633 1.415-.682.377-1.466.566-2.351.566a5.18 5.18 0 0 1-2.787-.784c-.842-.522-1.51-1.255-2.003-2.199-.479-.958-.718-2.053-.718-3.287 0-1.22.24-2.3.718-3.244.494-.944 1.154-1.67 1.981-2.177.842-.508 1.778-.762 2.809-.762zm3.984 6.226c0-.74-.145-1.371-.435-1.894a2.975 2.975 0 0 0-1.176-1.219 3.08 3.08 0 0 0-1.59-.435c-.565 0-1.088.137-1.567.413-.479.276-.87.682-1.175 1.22-.29.522-.436 1.146-.436 1.872 0 .726.145 1.364.436 1.916.304.537.696.95 1.175 1.24.494.291 1.016.436 1.568.436.566 0 1.096-.138 1.589-.414.494-.29.886-.696 1.176-1.219.29-.537.435-1.175.435-1.916zM111.927 9.666v16.111h-3.048V9.666h3.048zM114.155 19.703c0-1.22.239-2.3.718-3.244.494-.944 1.154-1.67 1.982-2.177.841-.508 1.778-.762 2.808-.762.9 0 1.684.181 2.351.544.683.363 1.227.82 1.633 1.371v-1.72h3.07v12.062h-3.07v-1.763c-.392.566-.936 1.037-1.633 1.415-.682.363-1.473.544-2.373.544a5.176 5.176 0 0 1-2.786-.784c-.828-.522-1.488-1.255-1.982-2.199-.479-.958-.718-2.053-.718-3.287zm9.492.043c0-.74-.145-1.371-.435-1.894a2.975 2.975 0 0 0-1.176-1.219 3.08 3.08 0 0 0-1.589-.435c-.566 0-1.089.137-1.568.413-.479.276-.871.682-1.175 1.22-.291.522-.436 1.146-.436 1.872 0 .726.145 1.364.436 1.916.304.537.696.95 1.175 1.24.494.291 1.016.436 1.568.436.566 0 1.096-.138 1.589-.414.494-.29.886-.696 1.176-1.219.29-.537.435-1.175.435-1.916zM134.31 25.973c-.987 0-1.873-.174-2.656-.522-.784-.363-1.408-.85-1.873-1.46a3.707 3.707 0 0 1-.74-2.024h3.07c.058.465.283.85.675 1.154.406.305.907.457 1.502.457.581 0 1.03-.116 1.35-.348.334-.232.501-.53.501-.893 0-.392-.204-.682-.61-.87-.392-.204-1.023-.422-1.894-.654-.9-.217-1.64-.442-2.221-.675a3.947 3.947 0 0 1-1.48-1.067c-.407-.479-.61-1.124-.61-1.937 0-.668.189-1.277.566-1.83.392-.55.943-.986 1.655-1.305.725-.32 1.575-.48 2.547-.48 1.437 0 2.584.364 3.44 1.09.856.71 1.328 1.676 1.415 2.895h-2.917c-.044-.48-.247-.857-.61-1.132-.348-.29-.82-.436-1.415-.436-.552 0-.98.102-1.285.305a.979.979 0 0 0-.435.85c0 .406.203.718.61.935.406.204 1.037.414 1.894.632.871.217 1.589.442 2.155.675a3.684 3.684 0 0 1 1.459 1.088c.421.48.638 1.118.653 1.916 0 .697-.196 1.321-.588 1.873-.377.551-.929.987-1.655 1.306-.711.305-1.545.457-2.503.457zM146.174 25.973c-.987 0-1.873-.174-2.657-.522-.783-.363-1.407-.85-1.872-1.46a3.707 3.707 0 0 1-.74-2.024h3.07c.058.465.283.85.675 1.154.406.305.907.457 1.502.457.58 0 1.03-.116 1.35-.348.334-.232.5-.53.5-.893 0-.392-.203-.682-.609-.87-.392-.204-1.023-.422-1.894-.654-.9-.217-1.64-.442-2.221-.675a3.94 3.94 0 0 1-1.48-1.067c-.407-.479-.61-1.124-.61-1.937 0-.668.189-1.277.566-1.83.392-.55.943-.986 1.655-1.305.725-.32 1.574-.48 2.547-.48 1.437 0 2.584.364 3.44 1.09.856.71 1.328 1.676 1.415 2.895h-2.917c-.044-.48-.247-.857-.61-1.132-.348-.29-.82-.436-1.415-.436-.552 0-.98.102-1.285.305a.979.979 0 0 0-.435.85c0 .406.203.718.609.935.407.204 1.038.414 1.895.632.87.217 1.589.442 2.155.675a3.684 3.684 0 0 1 1.459 1.088c.421.48.638 1.118.653 1.916 0 .697-.196 1.321-.588 1.873-.377.551-.929.987-1.655 1.306-.711.305-1.545.457-2.503.457z" fill="#fff"/></svg>
